assets/images/sites/theotherjournal.svg

<svg height="150" viewBox="0 0 150 150" width="150" xmlns="http://www.w3.org/2000/svg" xmlns:xlink="http://www.w3.org/1999/xlink"><mask id="a" fill="#fff"><path d="m0 0h150v150h-150z" fill="#fff" fill-rule="evenodd"/></mask><g fill="#1a1919" fill-rule="evenodd"><path d="m44.2995308 95.7236842c-1.0883458 0-1.8066711.6838726-2.1353891 2.0328729l-3.607594 15.1334459c-.1403012.557292-.0672764 1.074777.2052358 1.456204.290183.40628.7717633.620898 1.3927932.620898 1.0670558 0 1.7566396-.689559 2.1085636-2.107852l3.5754461-14.9510518c.1228434-.5665591.014903-1.1318544-.2963571-1.5522455-.2980603-.4018568-.7504732-.6322715-1.2426985-.6322715"/><path d="m44.57904 82.7605513c.3530368 1.4186171 1.0427643 2.1078698 2.1088805 2.1078698.6213704 0 1.1026299-.2144202 1.3928292-.6207894.272367-.3813781.3451821-.8986326.2044344-1.456629l-3.6070051-15.1326864c-.3288359-1.3497339-1.0470101-2.0333163-2.1347798-2.0333163-.491874 0-.9453236.2303809-1.242953.63276-.3114282.4204399-.4196957.9851566-.2972048 1.5494533z"/><path d="m78.9314583 96.5505459c-.3858333-.5417118-1.0083333-.816318-1.850625-.816318h-.8389583l-1.8460417 7.9348281h.840625c1.4254167 0 3.1547917-.386282 3.8835417-3.402992.4133333-1.7095176.3495833-2.9592051-.1885417-3.7155181" mask="url(#a)"/><path d="m127.56 118.326736h-10.232083l6.218125-26.2646892h4.863541l-5.274791 22.2639382h5.34625zm-12.692708-.016877h-4.95l.566666-5.435661h-3.808541l-2.040834 5.44587h-4.9374997l10.4806247-26.2503122h6.672709zm-22.1781253.005209-1.311875-15.392741-.1502084-.012918-3.6779166 15.402742h-4.8397917l6.2227083-26.2832319h4.7029167l1.3477083 15.3758649.1502084.012917 3.6520833-15.3602379h4.83875l-6.215 26.2576049zm-12.36125-.002917h-4.7547917l-.5485417-11.253229h-1.4470833l-2.700625 11.265522h-4.8395833l6.2183333-26.264064h5.1391667c2.5870833 0 4.5604166.8527794 5.7072916 2.4652055 1.060625 1.4911659 1.3647917 3.5998833.8339584 5.7861075-.7620834 3.14172-2.3133334 5.211684-4.6108334 6.152596l-.055.022502zm-24.1222917.366697c-2.7458333 0-4.17-1.183015-4.88125-2.175598-.874375-1.218851-1.158125-2.842528-.7789583-4.453913l4.744375-19.988957h4.8464583l-4.9133333 20.559005c-.1470834.591716-.07875 1.130094.19375 1.515126.263125.372323.6941666.568798 1.24625.568798 1.155 0 1.841875-.604009 2.1608333-1.902034l4.9541667-20.740895h4.823125l-4.8304167 20.255646c-1.0908333 4.34057-3.495 6.362822-7.565 6.362822zm-16.4377083 0c-2.2260417 0-3.9285417-.737145-4.9225-2.131219-.9695874-1.35928-1.2225-3.280482-.71125-5.408784l3.1502083-13.3138179c.865-3.8424035 3.7452083-6.1357197 7.705-6.1357197 1.92375 0 3.6733333.8213185 4.680625 2.1968498.8708333 1.1884323 1.136875 2.7189766.7702083 4.4262022l-3.2920833 13.9684556c-1.096875 4.36453-3.4422917 6.398033-7.3802083 6.398033zm-15.633125 0c-3.3185417 0-4.859375-2.416451-5.0920834-2.817318l2.7416667-2.690849c.4147917.67589.9358333 1.281148 1.8645833 1.281148.670625 0 1.5372917-.279606 1.8572917-1.613676.6925-2.892324 3.8504167-16.214476 4.929375-20.777773h4.8754167l-5.076875 21.295525c-.8970834 3.58134-2.8922917 5.322943-6.099375 5.322943zm13.1754166-55.0016666c1.010625-1.3799066 2.7658334-2.2035169 4.6947917-2.2035169 3.9710417 0 6.8595833 2.3001917 7.7277083 6.152596l3.1595834 13.3536128c.5127083 2.135178.2590467 4.0620052-.7133334 5.4252438-.9975 1.3978248-2.7045833 2.1372614-4.9370833 2.1372614-3.9497917 0-6.3022917-2.0397533-7.4025-6.4188682l-3.301875-14.0092924c-.3672917-1.7101426-.1-3.2450621.7727083-4.4370365zm25.5447917-1.8234853.9375 3.9817902h-3.85625l5.2939583 22.3537378h-4.8325l-5.3016666-22.3454038h-3.8529167l-.961875-3.9901242zm-7.4285417-26.1761396.9433334-3.9972081 12.5585416-.0012501-.90375 3.9984582h-3.864375l-5.3208333 22.324777h-4.854375l5.3158333-22.3251937zm20.6439584-3.9961664-2.628125 11.0342529 3.8845833-.0004167 2.6064583-11.0344612 4.8329167-.0004167-6.2460417 26.3230269-4.8220833.0016668 2.6577083-11.2913576-3.8935416-.0010418-2.673125 11.2903159-4.819375.0010417 6.2245833-26.3232352zm23.093125-.0010417-.9741667 3.9967914-5.8310417.0016668-1.6435416 7.0357946 4.6404166.0016668-.9535416 3.9967914h-4.6808334l-1.716875 7.2828986h5.8139584l-.934375 4.0074173-10.65375-.0016668 6.2195833-26.3203184zm-16.6670834 30.1683473h10.6952084l.9322916 3.9922077h-5.8222916l1.6766666 7.0397533h4.6464584l.97125 3.9974165h-4.67875l1.7397916 7.2981081h5.8202084l.9447916 3.9974165h-10.6660416zm-6.2960416 26.3249021h-4.8329167l-6.2585417-26.3199017h4.8683334l2.6129166 11.0269606h3.8504167l-2.6-11.0269606h4.8697917l6.2225 26.3192766h-4.8702084l-2.6839583-11.2948995h-3.8489583zm35.4789583-19.6697641c.696458 3.0642136-.397917 5.736103-1.839375 6.7922326l-.058958.0431286 6.851875 12.8344029h-4.928334l-5.662708-11.2955246h-1.484792l2.697292 11.2955246h-4.833333c-.263125-1.1065505-3.9845837-16.7397283-6.2631253-26.3294858l5.8285413.0045837c5.580834 0 8.660625 2.1149679 9.692917 6.655138zm-111.679375 81.5086673h150v-150.012501h-150z" mask="url(#a)"/><path d="m103.562733 73.5197368.976742-.0012406c.869224 0 1.559745-.3140857 1.997209-.9097939.580257-.7900733.691577-2.0319421.321919-3.5916183-.54139-2.2827557-1.834348-3.392084-3.952805-3.392084h-1.261061z"/><path d="m110.766 109.046 1.241-10.814-.143-.041-3.805 10.855z"/></g></svg>

<svg xmlns="http://www.w3.org/2000/svg" xmlns:xlink="http://www.w3.org/1999/xlink" width="150" height="150" version="1.1" viewBox="0 0 150 150"><title>TOJ_SquareBadge_Black</title><defs><polygon id="path-1" points="0 0 150 0 150 150 0 150"/></defs><g id="mockups" fill="none" fill-rule="evenodd" stroke="none" stroke-width="1"><g id="Styles" transform="translate(-1348.000000, -192.000000)"><g id="logos" transform="translate(1348.000000, 96.000000)"><g id="TOJ_SquareBadge_Black" transform="translate(0.000000, 96.000000)"><path id="Fill-1" fill="#1A1919" d="M44.2995308,95.7236842 C43.211185,95.7236842 42.4928597,96.4075568 42.1641417,97.7565571 L38.5565477,112.890003 C38.4162465,113.447295 38.4892713,113.96478 38.7617835,114.346207 C39.0519665,114.752487 39.5335468,114.967105 40.1545767,114.967105 C41.2216325,114.967105 41.9112163,114.277546 42.2631403,112.859253 L45.8385864,97.9082012 C45.9614298,97.3416421 45.8534894,96.7763468 45.5422293,96.3559557 C45.244169,95.9540989 44.7917561,95.7236842 44.2995308,95.7236842"/><path id="Fill-2" fill="#1A1919" d="M44.57904,82.7605513 C44.9320768,84.1791684 45.6218043,84.8684211 46.6879205,84.8684211 C47.3092909,84.8684211 47.7905504,84.6540009 48.0807497,84.2476317 C48.3531167,83.8662536 48.4259318,83.3489991 48.2851841,82.7910027 L44.678179,67.6583163 C44.3493431,66.3085824 43.6311689,65.625 42.5433992,65.625 C42.0515252,65.625 41.5980756,65.8553809 41.3004462,66.25776 C40.989018,66.6781999 40.8807505,67.2429166 41.0032414,67.8072133 L44.57904,82.7605513"/><g id="Group-6"><mask id="mask-2" fill="#fff"><use xlink:href="#path-1"/></mask><path id="Fill-3" fill="#1A1919" d="M78.9314583,96.5505459 C78.545625,96.0088341 77.923125,95.7342279 77.0808333,95.7342279 L76.241875,95.7342279 L74.3958333,103.669056 L75.2364583,103.669056 C76.661875,103.669056 78.39125,103.282774 79.12,100.266064 C79.5333333,98.5565464 79.4695833,97.3068589 78.9314583,96.5505459" mask="url(#mask-2)"/><path id="Fill-5" fill="#1A1919" d="M127.56,118.326736 L117.327917,118.326736 L123.546042,92.0620468 L128.409583,92.0620468 L123.134792,114.325985 L128.481042,114.325985 L127.56,118.326736 Z M114.867292,118.309859 L109.917292,118.309859 L110.483958,112.874198 L106.675417,112.874198 L104.634583,118.320068 L99.6970833,118.320068 L110.177708,92.0697558 L116.850417,92.0697558 L114.867292,118.309859 Z M92.6891667,118.315068 L91.3772917,102.922327 L91.2270833,102.909409 L87.5491667,118.312151 L82.709375,118.312151 L88.9320833,92.0289191 L93.635,92.0289191 L94.9827083,107.404784 L95.1329167,107.417701 L98.785,92.0574631 L103.62375,92.0574631 L97.40875,118.315068 L92.6891667,118.315068 Z M80.3279167,118.312151 L75.573125,118.312151 L75.0245833,107.058922 L73.5775,107.058922 L70.876875,118.324444 L66.0372917,118.324444 L72.255625,92.06038 L77.3947917,92.06038 C79.981875,92.06038 81.9552083,92.9131594 83.1020833,94.5255855 C84.1627083,96.0167514 84.466875,98.1254688 83.9360417,100.311693 C83.1739583,103.453413 81.6227083,105.523377 79.3252083,106.464289 L79.2702083,106.486791 L80.3279167,118.312151 Z M56.205625,118.678848 C53.4597917,118.678848 52.035625,117.495833 51.324375,116.50325 C50.45,115.284399 50.16625,113.660722 50.5454167,112.049337 L55.2897917,92.06038 L60.13625,92.06038 L55.2229167,112.619385 C55.0758333,113.211101 55.1441667,113.749479 55.4166667,114.134511 C55.6797917,114.506834 56.1108333,114.703309 56.6629167,114.703309 C57.8179167,114.703309 58.5047917,114.0993 58.82375,112.801275 L63.7779167,92.06038 L68.6010417,92.06038 L63.770625,112.316026 C62.6797917,116.656596 60.275625,118.678848 56.205625,118.678848 Z M39.7679167,118.678848 C37.541875,118.678848 35.839375,117.941703 34.8454167,116.547629 C33.8758293,115.188349 33.6229167,113.267147 34.1341667,111.138845 L37.284375,97.8250271 C38.149375,93.9826236 41.0295833,91.6893074 44.989375,91.6893074 C46.913125,91.6893074 48.6627083,92.5106259 49.67,93.8861572 C50.5408333,95.0745895 50.806875,96.6051338 50.4402083,98.3123594 L47.148125,112.280815 C46.05125,116.645345 43.7058333,118.678848 39.7679167,118.678848 Z M24.1347917,118.678848 C20.81625,118.678848 19.2754167,116.262397 19.0427083,115.86153 L21.784375,113.170681 C22.1991667,113.846571 22.7202083,114.451829 23.6489583,114.451829 C24.3195833,114.451829 25.18625,114.172223 25.50625,112.838153 C26.19875,109.945829 29.3566667,96.623677 30.435625,92.06038 L35.3110417,92.06038 L30.2341667,113.355905 C29.3370833,116.937245 27.341875,118.678848 24.1347917,118.678848 Z M37.3102083,63.6771814 C38.3208333,62.2972748 40.0760417,61.4736645 42.005,61.4736645 C45.9760417,61.4736645 48.8645833,63.7738562 49.7327083,67.6262605 L52.8922917,80.9798733 C53.405,83.1150513 53.1513384,85.0418785 52.1789583,86.4051171 C51.1814583,87.8029419 49.474375,88.5423785 47.241875,88.5423785 C43.2920833,88.5423785 40.9395833,86.5026252 39.839375,82.1235103 L36.5375,68.1142179 C36.1702083,66.4040753 36.4375,64.8691558 37.3102083,63.6771814 Z M62.855,61.8536961 L63.7925,65.8354863 L59.93625,65.8354863 L65.2302083,88.1892241 L60.3977083,88.1892241 L55.0960417,65.8438203 L51.243125,65.8438203 L50.28125,61.8536961 L62.855,61.8536961 Z M55.4264583,35.6775565 L56.3697917,31.6803484 L68.9283333,31.6790983 L68.0245833,35.6775565 L64.1602083,35.6775565 L58.839375,58.0023335 L53.985,58.0023335 L59.3008333,35.6771398 L55.4264583,35.6775565 Z M76.0704167,31.6813901 L73.4422917,42.715643 L77.326875,42.7152263 L79.9333333,31.6807651 L84.76625,31.6803484 L78.5202083,58.0033753 L73.698125,58.0050421 L76.3558333,46.7136845 L72.4622917,46.7126427 L69.7891667,58.0029586 L64.9697917,58.0040003 L71.194375,31.6807651 L76.0704167,31.6813901 Z M99.1635417,31.6803484 L98.189375,35.6771398 L92.3583333,35.6788066 L90.7147917,42.7146012 L95.3552083,42.716268 L94.4016667,46.7130594 L89.7208333,46.7130594 L88.0039583,53.995958 L93.8179167,53.995958 L92.8835417,58.0033753 L82.2297917,58.0017085 L88.449375,31.6813901 L99.1635417,31.6803484 Z M82.4964583,61.8486957 L93.1916667,61.8486957 L94.1239583,65.8409034 L88.3016667,65.8409034 L89.9783333,72.8806567 L94.6247917,72.8806567 L95.5960417,76.8780732 L90.9172917,76.8780732 L92.6570833,84.1761813 L98.4772917,84.1761813 L99.4220833,88.1735978 L88.7560417,88.1735978 L82.4964583,61.8486957 Z M76.2004167,88.1735978 L71.3675,88.1735978 L65.1089583,61.8536961 L69.9772917,61.8536961 L72.5902083,72.8806567 L76.440625,72.8806567 L73.840625,61.8536961 L78.7104167,61.8536961 L84.9329167,88.1729727 L80.0627083,88.1729727 L77.37875,76.8780732 L73.5297917,76.8780732 L76.2004167,88.1735978 Z M111.679375,68.5038337 C112.375833,71.5680473 111.281458,74.2399367 109.84,75.2960663 L109.781042,75.3391949 L116.632917,88.1735978 L111.704583,88.1735978 L106.041875,76.8780732 L104.557083,76.8780732 L107.254375,88.1735978 L102.421042,88.1735978 C102.157917,87.0670473 98.4364583,71.4338695 96.1579167,61.844112 L101.986458,61.8486957 C107.567292,61.8486957 110.647083,63.9636636 111.679375,68.5038337 Z M0,150.012501 L150,150.012501 L150,0 L0,0 L0,150.012501 Z" mask="url(#mask-2)"/></g><path id="Fill-7" fill="#1A1919" d="M103.562733,73.5197368 L104.539475,73.5184962 C105.408699,73.5184962 106.09922,73.2044105 106.536684,72.6087023 C107.116941,71.818629 107.228261,70.5767602 106.858603,69.017084 C106.317213,66.7343283 105.024255,65.625 102.905798,65.625 L101.644737,65.625 L103.562733,73.5197368"/><polyline id="Fill-8" fill="#1A1919" points="110.766 109.046 112.007 98.232 111.864 98.191 108.059 109.046 110.766 109.046"/></g></g></g></g></svg>
